X: 1
T: The Maid Of Mount Kisco
R: reel
M: 4/4
L: 1/8
K: Ador
EA~A2 BGAG|EA~A2 BGAG|EG~G2 AG~G2|EG~G2 EGDG|
EA~A2 BGAG|EA~A2 BA3(Bcd)|eg3  afge| dBGB ~A3G |||:
~A3B dBAB|G2BG DGBG|~A3B d2 3(Bcd)|1 efge dBAG :|2 edge d4||
ea~a2 bgaf |ged GABd|ea~a2 bgaf|gede gg3|
~a3f ~g3e|dedB GA3(Bcd)|eA~A2 efge|1 dBGB A3g:|2 dBGB ~A3G|
EA~A2 BGAG|EA~A2 BGAG|EG~G2 AG~G2|EG~G2 EGDG|
EA~A2 BGAG|EA~A2 BA3(Bcd)|eg3  afge| dBGB ~A3G |
EA~A2 BGAG|EA~A2 BdAG|EG~G2 AG~G2|gedB AGED
E3A BGAG|EA~A2 BA3(Bcd)|eg3  afge| dBGB ~A3G |
|:~A3B dBAB|G2BG DGBG|~A3B d2 3(Bcd)| efge dBAG  |
A3B dBAB|G2dBG DGBG|~A3B d2 3(Bcd)| efge d4  |
|:ea~a2 bgaf |ged GABd|ea~a2 bgaf|gede gg3|
~a3f ~g3e|dedB GA3(Bcd)|eA~A2 efge|1 dBGB a3g:|2 dBGB ~A3G||
